X: 46
T: No_138_Love_Song_(d).krn
N: Derived from No_138_Love_Song_(d).krn
%%abc-version 2.0
%%abcx-abcm2ps-target-version 5.9.1 (29 Sep 2008)
%%abc-creator hum2abc beta
%%abcx-conversion-date 2019/03/15 08:35:44
%%humdrum-veritas 2888022268
%%humdrum-veritas-data 317327681
%%linebreak <none>
%%barnumbers 0
L: 1/4
M: 3/4
K: Ab clef=treble
[K:clef=treble][M:3/4]z2z/ E/ | 
A2A | 
(A3//E//) E/ z/ A3//B// | 
B2e ||  
[M:2/4]B3//A//A- | 
(AF) | 
E2 | 
Ez | 
EE ||  
[M:3/4]A2B | 
(A2F) | 
E2z | 
ABe | 
B3 ||  
[M:2/4]A2 | 
BA | 
F2 | 
E2 |]  



